X:1
T:G Major Daniel Belknap, 1806
T:Phillip Doddridge, 1755 The Gospel Jubilee 88. 88. (L. M.)
T:Ashford
T:Treble-Tenor-Bass from The Village Compilation , 1806; Counter by B. C. Johnston, 2015.
%%score [ 1 2 3 4 ]
L:1/8
M:4/4
K:G
V:1 treble nm="Treble" snm="Tr."
V:2 treble nm="Counter" snm="C."
V:3 treble-8 nm="Tenor" snm="T."
V:4 bass nm="Bass" snm="B."
V:1
 B8 | d2 B2 B2 c2 | d2 e2 d2 B2 | c2 c2 B2 G2 | Bc de d4- | d8- | d6 G2 | B2 d2 B2 G2 | d2 de d4- | %9
w: 1.~~Loud|let the tune- ful|trum- pet sound, And|spread the joy- ful|ti- * dings * round,~|_|* Let|eve- ry soul with|trans- port * hear,~|
 d8- | d6 d2 | g2 g2 f2 ef | d4 d4 | d8 |] %14
w: _|* And|hail the Lord's ac- *|cep- ted|year.|
V:2
 B8 | G2 G2 G2 c2 | G2 G2 G4- | G8- | G6 B2 | G2 D2 G2 G2 | G2 FG D4- | D6 B2 | B2 BA G4- | G8- | %10
w: 1.~~Loud|let the tune- ful|trum- pet sound,~|_|* Let|eve- ry soul with|trans- port * hear,~|_ with|trans- port * hear,~|_|
 G6 D2 | E2 G2 G2 c2 | B4 D4 | D8 |] %14
w: * And|hail the Lord's ac-|cep- ted|year.|
V:3
 G8 | B2 d2 d2 B2 | g2 g2 B2 d2 | e2 e2 d2 B2 | d2 B2 A2 G2 | B2 d2 B2 G2 | d2 de d4- | d8- | %8
w: 1.~Loud|let the tune- ful|trum- pet sound, And|spread the joy- ful|ti- dings round; Let|eve- ry soul with|trans- port * hear,~|_|
 d6 d2 | g2 d2 B2 e2 | g2 d2 g2 B2 | ed ge d2 dc | B4 A4 | G8 |] %14
w: * Let|eve- ry soul with|trans- port hear, And|hail * the * Lord's ac- *|cep- ted|year.|
V:4
"^___________________________\nEdited by B. C. Johnston, 2015\nMeasure 4, Treble: last note chnged from A to G." G,8 | %1
w: 1.~~Loud|
 G,2 G,2 G,2 G,2 | G,2 D,2 G,2 D2 | C2 A,2 B,2 G,2 | B,2 G,2 D,4- | D,8- | D,6 D,2 | %7
w: let the tune- ful|trum- pet sound, And|spread the joy- ful|ti- dings round,~|_|* Let|
 G,2 G,,2 B,,2 D,2 | G,2 D,2 G,4- | G,8- | G,6 B,2 | C2 A,2 B,2 B,A, | G,4 D,4 | G,8 |] %14
w: eve- ry soul with|trans- port hear,~|_|* And|hail the Lord's ac- *|cep- ted|year.|

